X:2074
T:Säckpipslåt från Norra Råda
O:Värmland
Z: Jimmy U, 2011-07-21
M:4/4
L:1/8
K:Ddorisk
DE|F2EFD2EF|G2FGE2FG|A2BA GFEF|D2EDC2DE|
F2EFD2EF|G2FGE2FG|A2BA GFEF|D6:|]|:DF|
A2FA cBGB|BAced2dc|A2FA cBGB|BAAG FEFG|
A2FA cBGB|BAced2dc|A2BA GFEF|D6:|]
(:musicend:)

%blue% Det finns en [[Kategori/dublett|dublett]]: [[Musik/1786|+]].

(:music:)
